app/dist/common/images/alpargatas.svg

<svg height="18" width="18" xmlns="http://www.w3.org/2000/svg"><path d="m0 0h18v18h-18z" fill="#f0f3fa"/><path d="m7 8.9v-1.9l2 2.05-2 1.95z" fill="#fbb812"/><path d="m7 11-1.95-2.05 1.95-1.95z" fill="#f68121"/><path d="m11 7-2 2.06-2-2.06z" fill="#019fdc"/><path d="m7 7 2-2 2 2z" fill="#0071b5"/><path d="m7 11-1.95-2.05-2.05 2.05z" fill="#eb1c24"/><path d="m11 7-2 2.06 2 1.94z" fill="#6ccef5"/><path d="m11 11 1.96-2.05-1.96-1.95z" fill="#acc32b"/><path d="m11 11 1.95-2.05 2.05 2.05z" fill="#01a451"/></svg>

<!-- by TradingView --><svg xmlns="http://www.w3.org/2000/svg" width="18" height="18"><path fill="#F0F3FA" d="M0 0h18v18H0z"/><path d="M7 8.9V7l2 2.05L7 11V8.9z" fill="#FBB812"/><path d="M7 11L5.05 8.95 7 7v4z" fill="#F68121"/><path d="M11 7L9 9.06 7 7h4z" fill="#019FDC"/><path d="M7 7l2-2 2 2H7z" fill="#0071B5"/><path d="M7 11L5.05 8.95 3 11h4z" fill="#EB1C24"/><path d="M11 7L9 9.06 11 11V7z" fill="#6CCEF5"/><path d="M11 11l1.96-2.05L11 7v4z" fill="#ACC32B"/><path d="M11 11l1.95-2.05L15 11h-4z" fill="#01A451"/></svg>
